assets/Water closet/Flat/water_closet_flat.svg

<svg width="32" height="32" viewBox="0 0 32 32" fill="none" xmlns="http://www.w3.org/2000/svg">
<path d="M2 6C2 3.79086 3.79086 2 6 2H26C28.2091 2 30 3.79086 30 6V26C30 28.2091 28.2091 30 26 30H6C3.79086 30 2 28.2091 2 26V6Z" fill="#00A6ED"/>
<path d="M19.5764 15.9095C19.5269 17.7009 20.9639 19.1676 22.7429 19.1676C23.1963 19.1676 23.6299 19.071 24.0213 18.8951C24.4252 18.7142 24.9034 18.848 25.171 19.2023C25.5476 19.7003 25.3667 20.4238 24.7944 20.6741C24.1675 20.9491 23.4738 21.1027 22.7429 21.1027C19.8539 21.1027 17.5249 18.7043 17.6389 15.7906C17.7405 13.1569 19.8762 11.0087 22.51 10.8923C23.3251 10.8576 24.0982 11.0112 24.7919 11.316C25.3667 11.5687 25.5525 12.2921 25.1735 12.7902C24.9059 13.142 24.4302 13.2783 24.0263 13.0999C23.5853 12.9041 23.0922 12.8075 22.5719 12.8348C20.9367 12.9215 19.621 14.2743 19.5764 15.9095Z" fill="white"/>
<path d="M15.0919 11.7545C15.2306 11.2367 15.7633 10.9294 16.2812 11.0682C16.799 11.2069 17.1062 11.7371 16.96 12.2574L14.8416 20.1636C14.7797 20.5254 14.5146 20.8351 14.138 20.9367C14.133 20.9379 14.1281 20.9385 14.1231 20.9392C14.1182 20.9398 14.1132 20.9404 14.1082 20.9416C14.1058 20.9441 14.1033 20.9441 14.1008 20.9441L14.0191 20.959C14.0153 20.959 14.011 20.9596 14.0067 20.9602C14.0023 20.9608 13.998 20.9615 13.9943 20.9615C13.9745 20.9639 13.9522 20.9664 13.9299 20.9664H13.8407C13.8208 20.9664 13.7986 20.9639 13.7763 20.9615C13.7726 20.9615 13.7682 20.9608 13.7639 20.9602C13.7595 20.9596 13.7552 20.959 13.7515 20.959C13.7242 20.9565 13.697 20.9515 13.6697 20.9441C13.6672 20.9416 13.6647 20.9416 13.6623 20.9416C13.6524 20.9416 13.6425 20.9392 13.6325 20.9367C13.2559 20.8351 12.9908 20.5254 12.9289 20.1636L11.747 15.7509L10.5652 20.1636C10.5033 20.5254 10.2381 20.8351 9.86155 20.9367C9.85659 20.9379 9.85163 20.9385 9.84668 20.9392C9.84172 20.9398 9.83677 20.9404 9.83181 20.9416C9.82934 20.9441 9.82686 20.9441 9.82438 20.9441L9.74262 20.959C9.7389 20.959 9.73457 20.9596 9.73023 20.9602C9.72589 20.9608 9.72156 20.9615 9.71784 20.9615C9.69802 20.9639 9.67572 20.9664 9.65342 20.9664H9.56423C9.54441 20.9664 9.52213 20.9639 9.49984 20.9615C9.49612 20.9615 9.49176 20.9608 9.48742 20.9602C9.48308 20.9596 9.47875 20.959 9.47503 20.959C9.44778 20.9565 9.42052 20.9515 9.39327 20.9441C9.39079 20.9416 9.38831 20.9416 9.38584 20.9416C9.37592 20.9416 9.36601 20.9392 9.3561 20.9367C8.9795 20.8351 8.71439 20.5254 8.65245 20.1636L6.53405 12.2574C6.3953 11.7396 6.70253 11.2069 7.22036 11.0682C7.73819 10.9294 8.27089 11.2367 8.40964 11.7545L9.6113 16.239L10.813 11.7545C10.8774 11.5092 11.0335 11.3135 11.2317 11.1871C11.2317 11.1846 11.2342 11.1846 11.2342 11.1846C11.2614 11.1673 11.2862 11.1524 11.3135 11.14C11.3147 11.14 11.3159 11.1394 11.3172 11.1388C11.3184 11.1382 11.3196 11.1375 11.3209 11.1375C11.3457 11.1227 11.3754 11.1103 11.4026 11.1004C11.4026 11.1004 11.4051 11.0979 11.4076 11.0979C11.4373 11.0855 11.4671 11.0756 11.4968 11.0682H11.5018C11.529 11.0607 11.5587 11.0533 11.5885 11.0484C11.5897 11.0484 11.5916 11.0477 11.5934 11.0471C11.5953 11.0465 11.5971 11.0459 11.5984 11.0459L11.6727 11.0384C11.6777 11.0384 11.682 11.0378 11.6863 11.0372C11.6907 11.0366 11.695 11.036 11.7 11.036H11.7991C11.804 11.036 11.8084 11.0366 11.8127 11.0372C11.817 11.0378 11.8214 11.0384 11.8263 11.0384C11.8511 11.0384 11.8759 11.0409 11.9007 11.0459C11.9019 11.0459 11.9038 11.0465 11.9056 11.0471C11.9075 11.0477 11.9093 11.0484 11.9106 11.0484C11.9403 11.0533 11.97 11.0607 11.9998 11.0682H12.0022L12.0914 11.0979C12.0914 11.0979 12.0939 11.1004 12.0964 11.1004C12.1261 11.1128 12.1534 11.1251 12.1806 11.1375C12.1818 11.1375 12.1831 11.1382 12.1843 11.1388C12.1856 11.1394 12.1868 11.14 12.1881 11.14C12.2153 11.1549 12.2426 11.1698 12.2674 11.1846C12.2674 11.1871 12.2698 11.1871 12.2698 11.1871C12.468 11.311 12.6217 11.5092 12.6886 11.7545L13.8902 16.239L15.0919 11.7545Z" fill="white"/>
</svg>

<svg xmlns="http://www.w3.org/2000/svg" width="32" height="32" fill="none"><path fill="#00A6ED" d="M2 6a4 4 0 0 1 4-4h20a4 4 0 0 1 4 4v20a4 4 0 0 1-4 4H6a4 4 0 0 1-4-4V6Z"/><path fill="#fff" d="M19.576 15.91a3.168 3.168 0 0 0 3.167 3.258c.453 0 .887-.097 1.278-.273a.958.958 0 0 1 1.15.307.968.968 0 0 1-.377 1.472 5.108 5.108 0 0 1-7.155-4.883c.102-2.634 2.237-4.782 4.871-4.899a5.11 5.11 0 0 1 2.282.424.97.97 0 0 1 .381 1.474.962.962 0 0 1-1.147.31 3.16 3.16 0 0 0-1.454-.265 3.183 3.183 0 0 0-2.996 3.074ZM15.092 11.755a.971.971 0 0 1 1.19-.687.96.96 0 0 1 .678 1.19l-2.118 7.906a.97.97 0 0 1-.704.773l-.015.002-.015.003c-.002.002-.005.002-.007.002l-.082.015-.012.001-.013.002a.538.538 0 0 1-.064.004h-.09c-.02 0-.041-.002-.064-.005h-.012l-.012-.002a.479.479 0 0 1-.082-.015c-.003-.002-.005-.002-.008-.002a.124.124 0 0 1-.03-.005.97.97 0 0 1-.703-.773l-1.182-4.413-1.182 4.413a.97.97 0 0 1-.703.773l-.015.002a.128.128 0 0 0-.015.003c-.003.002-.005.002-.008.002l-.081.015-.013.001-.012.002a.54.54 0 0 1-.065.004h-.089c-.02 0-.042-.002-.064-.005h-.013l-.012-.002a.478.478 0 0 1-.082-.015c-.002-.002-.005-.002-.007-.002a.123.123 0 0 1-.03-.005.97.97 0 0 1-.704-.773l-2.118-7.907a.971.971 0 0 1 1.876-.502l1.201 4.484 1.202-4.485a.963.963 0 0 1 .419-.567c0-.002.002-.002.002-.002a.64.64 0 0 1 .08-.045l.003-.001.004-.002a.493.493 0 0 1 .082-.037s.002-.002.005-.002a.622.622 0 0 1 .089-.03h.005a.847.847 0 0 1 .086-.02h.005c.002-.002.004-.002.005-.002l.075-.008h.013l.014-.002h.1l.013.001.013.001a.376.376 0 0 1 .08.01h.005c.03.005.059.013.089.02h.002l.09.03.004.002.085.037.003.002.004.001.08.045a.966.966 0 0 1 .421.57l1.201 4.484 1.202-4.485Z"/></svg>
